Costumes/W-story-1.svg

<?xml version="1.0" encoding="utf-8"?>
<!-- Generator: Adobe Illustrator 18.0.0, SVG Export Plug-In . SVG Version: 6.00 Build 0)  -->
<!DOCTYPE svg PUBLIC "-//W3C//DTD SVG 1.1//EN" "http://www.w3.org/Graphics/SVG/1.1/DTD/svg11.dtd">
<svg version="1.1" id="Layer_2" xmlns="http://www.w3.org/2000/svg" xmlns:xlink="http://www.w3.org/1999/xlink" x="0px" y="0px"
	 viewBox="0 0 74.5 51.3" enable-background="new 0 0 74.5 51.3" xml:space="preserve">
<g>
	<path fill="#53AD4E" d="M73.8,0.7c-1.4-0.2-2.9,0-4.3,0c-2.6,0-5.3,0.1-8,0c-1,0-1.9-0.3-2.5,0.7c-0.1,0.1-0.3,0.2-0.5,0.3
		c-1.1,0.6-2.3,1.2-3.4,1.8c-1.1,0.6-1.6,2-1.2,3.2c0,0.1,0.3,0.3,0.4,0.3c1.1,0,2.1,0,3.2,0c0.7,0,1.3,0.3,1.3,1
		c0.1,0.6,0.1,1.2-0.1,1.7c-0.5,1.6-1,3.2-1.6,4.7c-1.8,4.8-3.6,9.6-5.5,14.4c-0.4,1.2-0.9,2.3-1.5,3.6c-0.5-1.6-0.9-2.9-1.4-4.2
		c-1.4-4.1-2.8-8.2-4.3-12.3c-0.8-2.2-1.5-4.4-2.3-6.5c-0.3-1-0.6-2.1-1-3.1c-0.5-1.4-0.2-2.2,1.3-2.4c0.9-0.1,1.9-0.1,2.9,0
		c0.8,0.1,1,0.1,1-0.8c0-0.6,0-1.3-0.1-1.9c0-0.2-0.3-0.4-0.5-0.4c-2.4,0-4.8,0.1-7.2,0c-3.9-0.2-7.8-0.5-11.5,1.2
		c-0.9,0.4-1.8,0.9-2.6,1.3C24.3,3.4,24,3.6,24,3.8c0,0.7,0,1.4,0.1,2c0,0.2,0.3,0.4,0.5,0.4c1.1,0,2.1,0,3.2,0.1
		c1.1,0,2,0.5,2.5,1.5c0.3,0.7,0.7,1.4,1,2.1c0.6,1.6,1.2,3.1,1.7,4.7c0.1,0.2,0,0.6-0.1,0.9c-0.9,2.1-1.9,4.1-2.8,6.2
		c-0.4,1-0.9,2-1.3,3c-0.8,1.8-1.7,3.6-2.5,5.4c-0.4,0.9-0.7,1.8-1,2.7c-0.1-0.2-0.2-0.2-0.2-0.3c-1.5-4.5-3-8.9-4.6-13.4
		c-0.8-2.3-1.7-4.5-2.5-6.8c-0.8-2.4-1.5-4.8-2.3-7.1c-0.3-0.9-0.2-1.1,0.6-1.4c0.7-0.2,1.5-0.4,2.2-0.4c0.6,0,0.9-0.2,0.9-0.8
		c0-0.3,0.1-0.5,0.1-0.8c0.1-1.6,0.1-1.5-1.5-1.6c-2.7-0.1-5.3-0.2-8-0.4C8.3-0.1,6.5,0.5,4.7,0.1c-0.1,0-0.3,0.1-0.4,0.2
		C3.2,1.6,2.1,2.8,1,4C0.8,4.3,0.4,4.6,0,5c0,0.6,0,1.3,0,2.1c0,0.2,0.4,0.4,0.6,0.4c1.1,0.1,2.3,0,3.4,0.1c0.5,0.1,1.1,0.5,1.4,0.9
		c0.8,1.4,1.5,2.8,2,4.2c0.8,2.2,1.3,4.5,2,6.7c1.5,4.7,2.9,9.4,4.4,14.1c0.4,1.4,0.8,2.8,1.3,4.2c0.7,2.1,1.3,4.2,2,6.2
		c0.7,1.9,1.4,3.7,2.1,5.6c0.5,1.4,0.4,1.4,1.8,1.5c0.1,0,0.2,0,0.2,0c1.4,0.2,2.7,0.1,3.8-1c0.7-0.7,1.7-1.2,2-2
		c1-2.2,1.8-4.6,2.7-6.9c1.2-3.1,2.3-6.2,3.6-9.2c1-2.4,2.1-4.7,2.7-7.2c0-0.2,0.2-0.4,0.3-0.8c0.1,0.4,0.1,0.6,0.2,0.7
		c0.6,2.5,1.2,5.1,1.9,7.7c0.5,1.8,1.1,3.4,1.7,5.2c0.3,1,0.4,2,0.7,3c1.4,3.4,2.9,6.8,4.3,10.1c0.1,0.1,0.3,0.3,0.5,0.3
		c0.6,0.1,1.2,0.2,1.9,0.1c0.5,0,1,0,1.3-0.2c1.5-1.3,3.2-2.5,3.6-4.7c0-0.1,0.1-0.2,0.2-0.4c1-2.2,2-4.4,2.9-6.7
		c0.8-2.1,1.5-4.2,2.3-6.3c1-2.7,1.8-5.6,3-8.2c2.2-4.8,4.2-9.8,5.8-14.9c0.4-1.2,0.9-2.3,1.4-3.5c0.8-1.8,3.2-3,5.6-2.9
		c0.5,0,0.9,0,0.8-0.6C74.2,2.2,75,1,73.8,0.7z M54.5,6C54.4,6,54.4,6,54.5,6c-0.1-1.7-0.1-1.7,1.5-2.4c1.2-0.5,2.4-1.2,3.7-1.8
		c0.1,1.1-0.1,1.4-1,1.9c-1.3,0.7-2.6,1.4-3.9,2.1C54.7,6,54.6,6,54.5,6z M25.4,3.5c0.8-0.4,1.6-0.7,2.4-1.1c0.6-0.3,1.2-0.6,1.8-1
		c0.5,1,0.5,1.2-0.5,1.7c-1.4,0.7-2.9,1.5-4.3,2.2C24.3,4.3,24.4,4.1,25.4,3.5z M0.6,6.3c0-0.4,0-0.8,0.2-1.1c1.2-1.3,2.4-2.6,3.8-4
		C4.8,2,4.7,2.6,4.2,3C3.3,3.9,2.4,4.9,1.5,5.9C1.3,6,1.1,6.2,0.9,6.4C0.8,6.3,0.7,6.3,0.6,6.3z M19.6,48.4c-0.6-1.5-1.3-3-1.8-4.5
		c-1.1-3.2-2.1-6.5-3.1-9.7c-0.8-2.7-1.7-5.4-2.5-8.1c-1.2-4-2.3-8-3.6-12C8,12.1,7,10.2,6.1,8.4C5.3,6.7,3.8,6.8,2.3,6.9
		C2.1,6.9,1.9,6.9,1.7,7c0,0-0.1,0-0.2-0.1c1-1,2-2,3-2.9c0.2-0.2,0.7-0.1,1-0.1c1.9,0,3.3,1.4,3.7,3.2c0.3,1.5,0.8,3,1.4,4.4
		c1.3,3.3,3,6.6,4.1,10c1.7,5.1,3.1,10.2,4.7,15.3c0.7,2.4,1.7,4.7,2.5,7.1c0.4,1.1,0.7,2.3,1,3.5c0.1,0.2,0,0.7-0.2,0.8
		c-0.8,0.7-1.6,1.3-2.5,2.1C20,49.6,19.8,49,19.6,48.4z M20.9,50.5c1.4-1.1,2.6-2.4,4.6-1.9C24.9,49.9,22.8,50.8,20.9,50.5z
		 M26.9,37.7c-0.4-1.2-0.8-2.4-1.2-3.5c0-0.1,0-0.3,0.1-0.5c0.6-1.5,1.2-2.9,1.8-4.4c0.8-1.8,1.7-3.6,2.5-5.3
		c0.3-0.6,0.5-1.2,0.8-1.8c0.8-1.8,1.5-3.5,2.2-5.3c0.5-1.3,2-1.5,2.9-2.2c0.1,0,0.2,0.1,0.2,0.1C33.2,22.4,30.1,30,26.9,37.7z
		 M34.1,14.9c-0.3-0.7-0.6-1.3-0.9-1.9c-0.6-1.5-1.1-3-1.7-4.4c-0.4-0.8-0.9-1.7-1.6-2.2c-0.6-0.5-1.4-0.5-2.2-0.7
		c-0.5-0.1-1,0-1.5-0.2c0.5-0.3,1-0.6,1.5-0.8c0.6-0.3,1.3-0.6,1.9-0.9c1-0.5,2-0.4,2.8,0.3c1,0.9,1.6,1.9,2,3.2
		c0.7,2.1,1.5,4.2,2.2,6.3C35.7,14,34.9,14.4,34.1,14.9z M45.4,49.7c-0.6-1.4-1.2-2.9-1.9-4.3c-0.7-1.7-1.4-3.3-2.1-5
		c-0.3-0.9-0.4-1.9-0.7-2.8c-0.6-1.9-1.3-3.8-1.8-5.8c-0.6-2.1-1.1-4.3-1.6-6.5c0-0.2,0-0.3-0.1-0.5c-0.8-1.6-0.2-3.1,0.5-4.5
		c0.1-0.3,0.2-0.6,0.4-0.9c0.6,1.8,1.2,3.5,1.8,5.2c1.3,3.8,2.6,7.5,3.9,11.2c1.1,3.2,2.2,6.4,3.4,9.6c0.3,0.8,1,1.5,0.9,2.2
		c-0.1,0.7-0.9,1.3-1.4,2c-0.2,0.3-0.4,0.6-0.7,1C45.7,50.1,45.6,49.9,45.4,49.7z M46.7,50.6c2.1-2.6,2.1-2.6,4-2.1
		C49.6,49.6,48.6,51,46.7,50.6z M64.9,5.1c-0.5,1.4-1,2.8-1.5,4.1c-1.5,4-3,7.9-4.5,11.9c-2,5.1-4,10.3-6,15.4
		c-0.2,0.5-0.4,1-0.6,1.5c-0.1,0-0.1,0-0.2,0c-0.5-1.5-1-3-1.5-4.5c-0.1-0.2,0.1-0.5,0.2-0.8c2.1-5.4,4.2-10.9,6.3-16.3
		c0.7-1.7,1.5-3.4,2.1-5.2c0.3-1,0.5-2.1,0.5-3.1c0-0.9-0.7-1.6-1.6-1.8c-0.3-0.1-0.6-0.1-0.9-0.2c-0.3,0-0.6,0-1.1,0
		c1.4-0.8,2.6-1.9,4-2.2c1.5-0.4,3.2-0.4,4.6,0.5C64.8,4.4,64.9,4.9,64.9,5.1z"/>
	<path fill="#FFFFFF" d="M58.7,3.8c-1.3,0.7-2.6,1.4-3.9,2.1C54.7,6,54.6,6,54.5,6c0,0-0.1-0.1-0.1-0.1c0-1.7,0-1.6,1.6-2.3
		c1.2-0.5,2.4-1.2,3.7-1.8C59.8,3.1,59.6,3.3,58.7,3.8z"/>
	<path fill="#FFFFFF" d="M29,3.2c-1.4,0.7-2.9,1.5-4.3,2.2c-0.4-1.2-0.3-1.4,0.7-1.9c0.8-0.4,1.6-0.7,2.4-1.1c0.6-0.3,1.2-0.6,1.8-1
		C30.1,2.5,30,2.7,29,3.2z"/>
	<path fill="#FFFFFF" d="M4.2,3C3.3,3.9,2.4,4.9,1.5,5.9C1.3,6,1.1,6.2,0.9,6.4c-0.1,0-0.2,0-0.2-0.1c0-0.4,0-0.8,0.2-1.1
		c1.2-1.3,2.4-2.6,3.8-4C4.8,2,4.7,2.6,4.2,3z"/>
	<path fill="#FFFFFF" d="M50.6,48.5c-1.1,1.2-2,2.5-4,2.1C48.8,48,48.8,48,50.6,48.5z"/>
	<path fill="#FFFFFF" d="M25.4,48.7c-0.6,1.2-2.6,2.1-4.6,1.9C22.3,49.5,23.5,48.2,25.4,48.7z"/>
	<path fill="#FFFFFF" d="M36.6,13.5c-0.8,0.5-1.6,0.9-2.5,1.4c-0.3-0.7-0.6-1.3-0.9-1.9c-0.6-1.5-1.1-3-1.7-4.4
		c-0.4-0.8-0.9-1.7-1.6-2.2c-0.6-0.5-1.4-0.5-2.2-0.7c-0.5-0.1-1,0-1.5-0.2c0.5-0.3,1-0.6,1.5-0.8c0.6-0.3,1.3-0.6,1.9-0.9
		c1-0.5,2-0.4,2.8,0.3c1,0.9,1.6,1.9,2,3.2C35,9.3,35.8,11.4,36.6,13.5z"/>
	<path fill="#FFFFFF" d="M64.9,5.1c-0.5,1.4-1,2.8-1.5,4.1c-1.5,4-3,7.9-4.5,11.9c-2,5.1-4,10.3-6,15.4c-0.2,0.5-0.4,1-0.6,1.5
		c-0.1,0-0.1,0-0.2,0c-0.5-1.5-1-3-1.5-4.5c-0.1-0.2,0.1-0.5,0.2-0.8c2.1-5.4,4.2-10.9,6.3-16.3c0.7-1.7,1.5-3.4,2.1-5.2
		c0.3-1,0.5-2.1,0.5-3.1c0-0.9-0.7-1.6-1.6-1.8c-0.3-0.1-0.6-0.1-0.9-0.2c-0.3,0-0.6,0-1.1,0c1.4-0.8,2.6-1.9,4-2.2
		c1.5-0.4,3.2-0.4,4.6,0.5C64.8,4.4,64.9,4.9,64.9,5.1z"/>
	<path fill="#FFFFFF" d="M48.1,47.7c-0.1,0.7-0.9,1.3-1.4,2c-0.2,0.3-0.4,0.6-0.7,1c-0.3-0.4-0.5-0.6-0.6-0.9
		c-0.6-1.4-1.2-2.9-1.9-4.3c-0.7-1.7-1.4-3.3-2.1-5c-0.3-0.9-0.4-1.9-0.7-2.8c-0.6-1.9-1.3-3.8-1.8-5.8c-0.6-2.1-1.1-4.3-1.6-6.5
		c0-0.2,0-0.3-0.1-0.5c-0.8-1.6-0.2-3.1,0.5-4.5c0.1-0.3,0.2-0.6,0.4-0.9c0.6,1.8,1.2,3.5,1.8,5.2c1.3,3.8,2.6,7.5,3.9,11.2
		c1.1,3.2,2.2,6.4,3.4,9.6C47.5,46.2,48.2,47,48.1,47.7z"/>
	<path fill="#FFFFFF" d="M36.3,14.8c-3.1,7.6-6.2,15.2-9.4,23c-0.4-1.2-0.8-2.4-1.2-3.5c0-0.1,0-0.3,0.1-0.5
		c0.6-1.5,1.2-2.9,1.8-4.4c0.8-1.8,1.7-3.6,2.5-5.3c0.3-0.6,0.5-1.2,0.8-1.8c0.8-1.8,1.5-3.5,2.2-5.3c0.5-1.3,2-1.5,2.9-2.2
		C36.2,14.7,36.2,14.7,36.3,14.8z"/>
	<path fill="#FFFFFF" d="M22.6,48.2c-0.8,0.7-1.6,1.3-2.5,2.1c-0.2-0.7-0.3-1.3-0.6-1.9c-0.6-1.5-1.3-3-1.8-4.5
		c-1.1-3.2-2.1-6.5-3.1-9.7c-0.8-2.7-1.7-5.4-2.5-8.1c-1.2-4-2.3-8-3.6-12C8,12.1,7,10.2,6.1,8.4C5.3,6.7,3.8,6.8,2.3,6.9
		C2.1,6.9,1.9,6.9,1.7,7c0,0-0.1,0-0.2-0.1c1-1,2-2,3-2.9c0.2-0.2,0.7-0.1,1-0.1c1.9,0,3.3,1.4,3.7,3.2c0.3,1.5,0.8,3,1.4,4.4
		c1.3,3.3,3,6.6,4.1,10c1.7,5.1,3.1,10.2,4.7,15.3c0.7,2.4,1.7,4.7,2.5,7.1c0.4,1.1,0.7,2.3,1,3.5C22.9,47.6,22.8,48,22.6,48.2z"/>
</g>
</svg>

<?xml version="1.0" encoding="UTF-8" standalone="no"?>
<!-- Generator: Adobe Illustrator 18.0.0, SVG Export Plug-In . SVG Version: 6.00 Build 0)  -->

<svg
   version="1.1"
   id="Layer_2"
   x="0px"
   y="0px"
   viewBox="0 0 74.478439 51.282876"
   enable-background="new 0 0 74.5 51.3"
   xml:space="preserve"
   sodipodi:docname="W-story-1.svg"
   width="74.478439"
   height="51.282875"
   xmlns:inkscape="http://www.inkscape.org/namespaces/inkscape"
   xmlns:sodipodi="http://sodipodi.sourceforge.net/DTD/sodipodi-0.dtd"
   xmlns="http://www.w3.org/2000/svg"
   xmlns:svg="http://www.w3.org/2000/svg"><defs
   id="defs29" /><sodipodi:namedview
   id="namedview27"
   pagecolor="#ffffff"
   bordercolor="#000000"
   borderopacity="0.25"
   inkscape:showpageshadow="2"
   inkscape:pageopacity="0.0"
   inkscape:pagecheckerboard="0"
   inkscape:deskcolor="#d1d1d1" />
<g
   id="g24"
   transform="translate(0,0.2)">
	<path
   fill="#53ad4e"
   d="m 73.8,0.7 c -1.4,-0.2 -2.9,0 -4.3,0 -2.6,0 -5.3,0.1 -8,0 -1,0 -1.9,-0.3 -2.5,0.7 -0.1,0.1 -0.3,0.2 -0.5,0.3 -1.1,0.6 -2.3,1.2 -3.4,1.8 -1.1,0.6 -1.6,2 -1.2,3.2 0,0.1 0.3,0.3 0.4,0.3 1.1,0 2.1,0 3.2,0 0.7,0 1.3,0.3 1.3,1 0.1,0.6 0.1,1.2 -0.1,1.7 -0.5,1.6 -1,3.2 -1.6,4.7 -1.8,4.8 -3.6,9.6 -5.5,14.4 -0.4,1.2 -0.9,2.3 -1.5,3.6 C 49.6,30.8 49.2,29.5 48.7,28.2 47.3,24.1 45.9,20 44.4,15.9 43.6,13.7 42.9,11.5 42.1,9.4 41.8,8.4 41.5,7.3 41.1,6.3 40.6,4.9 40.9,4.1 42.4,3.9 c 0.9,-0.1 1.9,-0.1 2.9,0 0.8,0.1 1,0.1 1,-0.8 0,-0.6 0,-1.3 -0.1,-1.9 0,-0.2 -0.3,-0.4 -0.5,-0.4 -2.4,0 -4.8,0.1 -7.2,0 C 34.6,0.6 30.7,0.3 27,2 26.1,2.4 25.2,2.9 24.4,3.3 24.3,3.4 24,3.6 24,3.8 c 0,0.7 0,1.4 0.1,2 0,0.2 0.3,0.4 0.5,0.4 1.1,0 2.1,0 3.2,0.1 1.1,0 2,0.5 2.5,1.5 0.3,0.7 0.7,1.4 1,2.1 0.6,1.6 1.2,3.1 1.7,4.7 0.1,0.2 0,0.6 -0.1,0.9 -0.9,2.1 -1.9,4.1 -2.8,6.2 -0.4,1 -0.9,2 -1.3,3 -0.8,1.8 -1.7,3.6 -2.5,5.4 -0.4,0.9 -0.7,1.8 -1,2.7 C 25.2,32.6 25.1,32.6 25.1,32.5 23.6,28 22.1,23.6 20.5,19.1 19.7,16.8 18.8,14.6 18,12.3 17.2,9.9 16.5,7.5 15.7,5.2 15.4,4.3 15.5,4.1 16.3,3.8 17,3.6 17.8,3.4 18.5,3.4 c 0.6,0 0.9,-0.2 0.9,-0.8 0,-0.3 0.1,-0.5 0.1,-0.8 C 19.6,0.2 19.6,0.3 18,0.2 15.3,0.1 12.7,0 10,-0.2 8.3,-0.1 6.5,0.5 4.7,0.1 4.6,0.1 4.4,0.2 4.3,0.3 3.2,1.6 2.1,2.8 1,4 0.8,4.3 0.4,4.6 0,5 c 0,0.6 0,1.3 0,2.1 0,0.2 0.4,0.4 0.6,0.4 1.1,0.1 2.3,0 3.4,0.1 0.5,0.1 1.1,0.5 1.4,0.9 0.8,1.4 1.5,2.8 2,4.2 0.8,2.2 1.3,4.5 2,6.7 1.5,4.7 2.9,9.4 4.4,14.1 0.4,1.4 0.8,2.8 1.3,4.2 0.7,2.1 1.3,4.2 2,6.2 0.7,1.9 1.4,3.7 2.1,5.6 0.5,1.4 0.4,1.4 1.8,1.5 0.1,0 0.2,0 0.2,0 1.4,0.2 2.7,0.1 3.8,-1 0.7,-0.7 1.7,-1.2 2,-2 1,-2.2 1.8,-4.6 2.7,-6.9 1.2,-3.1 2.3,-6.2 3.6,-9.2 1,-2.4 2.1,-4.7 2.7,-7.2 0,-0.2 0.2,-0.4 0.3,-0.8 0.1,0.4 0.1,0.6 0.2,0.7 0.6,2.5 1.2,5.1 1.9,7.7 0.5,1.8 1.1,3.4 1.7,5.2 0.3,1 0.4,2 0.7,3 1.4,3.4 2.9,6.8 4.3,10.1 0.1,0.1 0.3,0.3 0.5,0.3 0.6,0.1 1.2,0.2 1.9,0.1 0.5,0 1,0 1.3,-0.2 1.5,-1.3 3.2,-2.5 3.6,-4.7 0,-0.1 0.1,-0.2 0.2,-0.4 1,-2.2 2,-4.4 2.9,-6.7 0.8,-2.1 1.5,-4.2 2.3,-6.3 1,-2.7 1.8,-5.6 3,-8.2 C 63,19.7 65,14.7 66.6,9.6 67,8.4 67.5,7.3 68,6.1 c 0.8,-1.8 3.2,-3 5.6,-2.9 0.5,0 0.9,0 0.8,-0.6 C 74.2,2.2 75,1 73.8,0.7 Z M 54.5,6 c -0.1,0 -0.1,0 0,0 C 54.4,4.3 54.4,4.3 56,3.6 57.2,3.1 58.4,2.4 59.7,1.8 59.8,2.9 59.6,3.2 58.7,3.7 57.4,4.4 56.1,5.1 54.8,5.8 54.7,6 54.6,6 54.5,6 Z M 25.4,3.5 c 0.8,-0.4 1.6,-0.7 2.4,-1.1 0.6,-0.3 1.2,-0.6 1.8,-1 0.5,1 0.5,1.2 -0.5,1.7 -1.4,0.7 -2.9,1.5 -4.3,2.2 -0.5,-1 -0.4,-1.2 0.6,-1.8 z M 0.6,6.3 C 0.6,5.9 0.6,5.5 0.8,5.2 2,3.9 3.2,2.6 4.6,1.2 4.8,2 4.7,2.6 4.2,3 3.3,3.9 2.4,4.9 1.5,5.9 1.3,6 1.1,6.2 0.9,6.4 0.8,6.3 0.7,6.3 0.6,6.3 Z m 19,42.1 C 19,46.9 18.3,45.4 17.8,43.9 16.7,40.7 15.7,37.4 14.7,34.2 13.9,31.5 13,28.8 12.2,26.1 11,22.1 9.9,18.1 8.6,14.1 8,12.1 7,10.2 6.1,8.4 5.3,6.7 3.8,6.8 2.3,6.9 2.1,6.9 1.9,6.9 1.7,7 1.7,7 1.6,7 1.5,6.9 c 1,-1 2,-2 3,-2.9 0.2,-0.2 0.7,-0.1 1,-0.1 1.9,0 3.3,1.4 3.7,3.2 0.3,1.5 0.8,3 1.4,4.4 1.3,3.3 3,6.6 4.1,10 1.7,5.1 3.1,10.2 4.7,15.3 0.7,2.4 1.7,4.7 2.5,7.1 0.4,1.1 0.7,2.3 1,3.5 0.1,0.2 0,0.7 -0.2,0.8 -0.8,0.7 -1.6,1.3 -2.5,2.1 C 20,49.6 19.8,49 19.6,48.4 Z m 1.3,2.1 c 1.4,-1.1 2.6,-2.4 4.6,-1.9 -0.6,1.3 -2.7,2.2 -4.6,1.9 z m 6,-12.8 c -0.4,-1.2 -0.8,-2.4 -1.2,-3.5 0,-0.1 0,-0.3 0.1,-0.5 0.6,-1.5 1.2,-2.9 1.8,-4.4 0.8,-1.8 1.7,-3.6 2.5,-5.3 0.3,-0.6 0.5,-1.2 0.8,-1.8 0.8,-1.8 1.5,-3.5 2.2,-5.3 0.5,-1.3 2,-1.5 2.9,-2.2 0.1,0 0.2,0.1 0.2,0.1 -3,7.6 -6.1,15.2 -9.3,22.9 z M 34.1,14.9 C 33.8,14.2 33.5,13.6 33.2,13 32.6,11.5 32.1,10 31.5,8.6 31.1,7.8 30.6,6.9 29.9,6.4 29.3,5.9 28.5,5.9 27.7,5.7 c -0.5,-0.1 -1,0 -1.5,-0.2 0.5,-0.3 1,-0.6 1.5,-0.8 0.6,-0.3 1.3,-0.6 1.9,-0.9 1,-0.5 2,-0.4 2.8,0.3 1,0.9 1.6,1.9 2,3.2 0.7,2.1 1.5,4.2 2.2,6.3 -0.9,0.4 -1.7,0.8 -2.5,1.3 z m 11.3,34.8 c -0.6,-1.4 -1.2,-2.9 -1.9,-4.3 -0.7,-1.7 -1.4,-3.3 -2.1,-5 -0.3,-0.9 -0.4,-1.9 -0.7,-2.8 -0.6,-1.9 -1.3,-3.8 -1.8,-5.8 -0.6,-2.1 -1.1,-4.3 -1.6,-6.5 0,-0.2 0,-0.3 -0.1,-0.5 -0.8,-1.6 -0.2,-3.1 0.5,-4.5 0.1,-0.3 0.2,-0.6 0.4,-0.9 0.6,1.8 1.2,3.5 1.8,5.2 1.3,3.8 2.6,7.5 3.9,11.2 1.1,3.2 2.2,6.4 3.4,9.6 0.3,0.8 1,1.5 0.9,2.2 -0.1,0.7 -0.9,1.3 -1.4,2 -0.2,0.3 -0.4,0.6 -0.7,1 -0.3,-0.5 -0.4,-0.7 -0.6,-0.9 z m 1.3,0.9 c 2.1,-2.6 2.1,-2.6 4,-2.1 -1.1,1.1 -2.1,2.5 -4,2.1 z M 64.9,5.1 c -0.5,1.4 -1,2.8 -1.5,4.1 -1.5,4 -3,7.9 -4.5,11.9 -2,5.1 -4,10.3 -6,15.4 -0.2,0.5 -0.4,1 -0.6,1.5 -0.1,0 -0.1,0 -0.2,0 -0.5,-1.5 -1,-3 -1.5,-4.5 -0.1,-0.2 0.1,-0.5 0.2,-0.8 2.1,-5.4 4.2,-10.9 6.3,-16.3 0.7,-1.7 1.5,-3.4 2.1,-5.2 0.3,-1 0.5,-2.1 0.5,-3.1 C 59.7,7.2 59,6.5 58.1,6.3 57.8,6.2 57.5,6.2 57.2,6.1 c -0.3,0 -0.6,0 -1.1,0 1.4,-0.8 2.6,-1.9 4,-2.2 1.5,-0.4 3.2,-0.4 4.6,0.5 0.1,0 0.2,0.5 0.2,0.7 z"
   id="path2" />
	<path
   fill="#ffffff"
   d="M 58.7,3.8 C 57.4,4.5 56.1,5.2 54.8,5.9 54.7,6 54.6,6 54.5,6 c 0,0 -0.1,-0.1 -0.1,-0.1 0,-1.7 0,-1.6 1.6,-2.3 1.2,-0.5 2.4,-1.2 3.7,-1.8 0.1,1.3 -0.1,1.5 -1,2 z"
   id="path4" />
	<path
   fill="#ffffff"
   d="M 29,3.2 C 27.6,3.9 26.1,4.7 24.7,5.4 24.3,4.2 24.4,4 25.4,3.5 26.2,3.1 27,2.8 27.8,2.4 28.4,2.1 29,1.8 29.6,1.4 30.1,2.5 30,2.7 29,3.2 Z"
   id="path6" />
	<path
   fill="#ffffff"
   d="M 4.2,3 C 3.3,3.9 2.4,4.9 1.5,5.9 1.3,6 1.1,6.2 0.9,6.4 0.8,6.4 0.7,6.4 0.7,6.3 0.7,5.9 0.7,5.5 0.9,5.2 2.1,3.9 3.3,2.6 4.7,1.2 4.8,2 4.7,2.6 4.2,3 Z"
   id="path8" />
	<path
   fill="#ffffff"
   d="m 50.6,48.5 c -1.1,1.2 -2,2.5 -4,2.1 2.2,-2.6 2.2,-2.6 4,-2.1 z"
   id="path10" />
	<path
   fill="#ffffff"
   d="m 25.4,48.7 c -0.6,1.2 -2.6,2.1 -4.6,1.9 1.5,-1.1 2.7,-2.4 4.6,-1.9 z"
   id="path12" />
	<path
   fill="#ffffff"
   d="M 36.6,13.5 C 35.8,14 35,14.4 34.1,14.9 33.8,14.2 33.5,13.6 33.2,13 32.6,11.5 32.1,10 31.5,8.6 31.1,7.8 30.6,6.9 29.9,6.4 29.3,5.9 28.5,5.9 27.7,5.7 c -0.5,-0.1 -1,0 -1.5,-0.2 0.5,-0.3 1,-0.6 1.5,-0.8 0.6,-0.3 1.3,-0.6 1.9,-0.9 1,-0.5 2,-0.4 2.8,0.3 1,0.9 1.6,1.9 2,3.2 0.6,2 1.4,4.1 2.2,6.2 z"
   id="path14" />
	<path
   fill="#ffffff"
   d="m 64.9,5.1 c -0.5,1.4 -1,2.8 -1.5,4.1 -1.5,4 -3,7.9 -4.5,11.9 -2,5.1 -4,10.3 -6,15.4 -0.2,0.5 -0.4,1 -0.6,1.5 -0.1,0 -0.1,0 -0.2,0 -0.5,-1.5 -1,-3 -1.5,-4.5 -0.1,-0.2 0.1,-0.5 0.2,-0.8 2.1,-5.4 4.2,-10.9 6.3,-16.3 0.7,-1.7 1.5,-3.4 2.1,-5.2 0.3,-1 0.5,-2.1 0.5,-3.1 C 59.7,7.2 59,6.5 58.1,6.3 57.8,6.2 57.5,6.2 57.2,6.1 c -0.3,0 -0.6,0 -1.1,0 1.4,-0.8 2.6,-1.9 4,-2.2 1.5,-0.4 3.2,-0.4 4.6,0.5 0.1,0 0.2,0.5 0.2,0.7 z"
   id="path16" />
	<path
   fill="#ffffff"
   d="m 48.1,47.7 c -0.1,0.7 -0.9,1.3 -1.4,2 -0.2,0.3 -0.4,0.6 -0.7,1 -0.3,-0.4 -0.5,-0.6 -0.6,-0.9 -0.6,-1.4 -1.2,-2.9 -1.9,-4.3 -0.7,-1.7 -1.4,-3.3 -2.1,-5 -0.3,-0.9 -0.4,-1.9 -0.7,-2.8 -0.6,-1.9 -1.3,-3.8 -1.8,-5.8 -0.6,-2.1 -1.1,-4.3 -1.6,-6.5 0,-0.2 0,-0.3 -0.1,-0.5 -0.8,-1.6 -0.2,-3.1 0.5,-4.5 0.1,-0.3 0.2,-0.6 0.4,-0.9 0.6,1.8 1.2,3.5 1.8,5.2 1.3,3.8 2.6,7.5 3.9,11.2 1.1,3.2 2.2,6.4 3.4,9.6 0.3,0.7 1,1.5 0.9,2.2 z"
   id="path18" />
	<path
   fill="#ffffff"
   d="m 36.3,14.8 c -3.1,7.6 -6.2,15.2 -9.4,23 -0.4,-1.2 -0.8,-2.4 -1.2,-3.5 0,-0.1 0,-0.3 0.1,-0.5 0.6,-1.5 1.2,-2.9 1.8,-4.4 0.8,-1.8 1.7,-3.6 2.5,-5.3 0.3,-0.6 0.5,-1.2 0.8,-1.8 0.8,-1.8 1.5,-3.5 2.2,-5.3 0.5,-1.3 2,-1.5 2.9,-2.2 0.2,-0.1 0.2,-0.1 0.3,0 z"
   id="path20" />
	<path
   fill="#ffffff"
   d="m 22.6,48.2 c -0.8,0.7 -1.6,1.3 -2.5,2.1 -0.2,-0.7 -0.3,-1.3 -0.6,-1.9 -0.6,-1.5 -1.3,-3 -1.8,-4.5 -1.1,-3.2 -2.1,-6.5 -3.1,-9.7 -0.8,-2.7 -1.7,-5.4 -2.5,-8.1 -1.2,-4 -2.3,-8 -3.6,-12 C 8,12.1 7,10.2 6.1,8.4 5.3,6.7 3.8,6.8 2.3,6.9 2.1,6.9 1.9,6.9 1.7,7 1.7,7 1.6,7 1.5,6.9 c 1,-1 2,-2 3,-2.9 0.2,-0.2 0.7,-0.1 1,-0.1 1.9,0 3.3,1.4 3.7,3.2 0.3,1.5 0.8,3 1.4,4.4 1.3,3.3 3,6.6 4.1,10 1.7,5.1 3.1,10.2 4.7,15.3 0.7,2.4 1.7,4.7 2.5,7.1 0.4,1.1 0.7,2.3 1,3.5 0,0.2 -0.1,0.6 -0.3,0.8 z"
   id="path22" />
</g>
</svg>
